frontend/public/svg/interface/login.svg

<svg width="147" height="156" viewBox="0 0 147 156" fill="none" xmlns="http://www.w3.org/2000/svg">
<g clip-path="url(#clip0)">
<path d="M24.3132 80.7455C27.1852 80.9397 30.1065 81.0601 32.9318 81.1772C33.835 81.2148 34.7383 81.2523 35.6415 81.2912L36.5111 81.3293C39.9372 81.4795 43.4808 81.6362 46.9686 81.7494C50.1676 81.8537 53.6579 81.9352 57.6389 82C60.2344 82.042 62.8345 82.0653 65.4327 82.088L68.9717 82.1197C70.1352 82.1314 71.2986 82.1449 72.4608 82.1611C75.0324 82.1941 77.6935 82.222 80.3078 82.2265C83.6684 82.2233 87.6442 82.2026 91.6556 82.0802C93.3252 82.0284 95.0168 81.9307 96.652 81.8355C98.5033 81.7287 100.416 81.6187 102.294 81.5773C103.428 81.552 104.583 81.4588 105.7 81.3701C108.091 81.0976 110.503 81.0834 112.896 81.3268C111.904 83.1625 110.764 84.9161 109.49 86.5706C108.578 87.7739 107.728 89.0232 106.943 90.3133L106.792 90.5722C104.854 93.8799 102.85 97.2996 101.048 100.761C100.585 101.647 100.074 102.54 99.5772 103.403C98.2146 105.77 96.8123 108.216 96.1381 111.022C96.1083 111.146 96.1148 111.276 96.1569 111.396C96.1985 111.516 96.2744 111.622 96.3743 111.701L98.0705 113.034C98.1665 113.11 98.282 113.158 98.4034 113.173C98.5247 113.187 98.648 113.168 98.7596 113.118C98.9627 113.025 99.1684 112.949 99.3696 112.874C99.8705 112.718 100.34 112.475 100.757 112.156C109.266 104.882 116.873 95.9746 125.424 83.2738C125.92 82.499 126.356 81.6886 126.731 80.849C128.167 77.8358 127.869 75.0932 125.846 72.6969C125.619 72.4289 125.398 72.1551 125.176 71.882C124.7 71.2936 124.208 70.6864 123.66 70.1271C122.146 68.5788 120.637 67.0252 119.133 65.4659C115.151 61.3447 111.033 57.0833 106.779 53.0959C104.025 50.6241 101.119 48.3269 98.0776 46.2177C97.1043 45.5115 96.131 44.8059 95.1667 44.0887L95.061 44.009C94.5172 43.5941 93.2441 42.6253 91.7555 44.0539C91.6335 44.1711 91.5609 44.3304 91.5518 44.4989C91.4265 46.9198 92.8495 48.5235 94.2297 50.0737C94.7722 50.6541 95.2731 51.2717 95.728 51.9227C97.4093 54.3527 99.2456 56.6723 101.227 58.8661L101.576 59.27C102.545 60.3911 103.583 61.4704 104.587 62.5216C105.546 63.5224 106.539 64.5577 107.457 65.6141C108.09 66.341 108.792 67.0252 109.469 67.6855C110.852 68.9193 112.057 70.3394 113.048 71.9053L112.838 71.9312C112.279 72.0192 111.713 72.0639 111.146 72.0645C107.508 71.9622 103.87 71.8496 100.231 71.7273C94.4212 71.5408 88.4131 71.3479 82.5004 71.2198C80.6511 71.1803 78.8018 71.1389 76.9518 71.0955C60.4051 70.7155 43.301 70.322 26.4889 71.8146C20.4542 72.3493 14.3612 73.2575 8.46933 74.1359L5.99379 74.5035C5.05558 74.7275 4.17262 75.1392 3.39823 75.7127C2.8311 76.0629 2.18869 76.4603 1.36914 76.905C1.2589 76.9652 1.16788 77.0552 1.1065 77.1646C1.04513 77.2733 1.0159 77.3983 1.0222 77.5232C1.02851 77.6488 1.07008 77.7692 1.14213 77.8715C1.21418 77.9744 1.31379 78.0546 1.4295 78.1032C5.04706 79.6185 8.16565 79.6677 10.9169 79.7111C11.8786 79.726 12.7864 79.7402 13.689 79.8114C15.2463 79.9338 16.7998 80.0839 18.3538 80.2335C20.3038 80.4166 22.3205 80.6108 24.3132 80.7455Z" fill="black"/>
<path d="M145.279 7.24664C144.587 3.37709 142.194 1.20535 138.363 0.963905C136.87 0.870046 135.261 0.748068 133.633 0.625083C131.415 0.457432 129.121 0.284369 127.025 0.17627C112.517 0.254593 87.7064 1.70015 85.761 1.97785C85.3737 2.01406 84.9986 2.13403 84.6625 2.32931C84.3263 2.5246 84.0369 2.79056 83.8144 3.10873C83.5659 3.55468 83.4173 4.04896 83.379 4.55758C83.34 5.06619 83.4121 5.57693 83.5905 6.0551C83.6165 6.14836 83.6619 6.2349 83.7248 6.30858C83.7878 6.38226 83.8663 6.44143 83.9545 6.48179C87.7181 8.21009 108.04 8.69174 122.879 9.04258C128.675 9.1791 133.354 9.29056 135.616 9.44333C135.694 10.2518 135.775 11.0135 135.853 11.7424C136.048 13.5548 136.213 15.124 136.252 16.7008C136.402 23.0043 136.557 30.4577 136.556 37.9392C136.556 42.9196 136.563 47.8997 136.576 52.8796C136.606 68.4476 136.64 84.5461 136.35 100.369C136.18 109.698 135.578 119.184 134.995 128.356C134.75 132.214 134.497 136.203 134.281 140.127C134.225 140.853 134.127 141.576 133.989 142.291C133.946 142.55 133.9 142.818 133.853 143.095C133.51 143.146 133.172 143.2 132.836 143.254C131.841 143.432 130.839 143.557 129.831 143.628C126.71 143.79 123.586 143.925 120.463 144.059C115.028 144.293 109.407 144.536 103.886 144.925C97.9809 145.341 88.0977 145.93 82.732 146.244C81.7055 146.303 80.7406 146.751 80.0346 147.496C79.328 148.241 78.9334 149.227 78.9302 150.252C78.9276 151.278 79.3176 152.266 80.0203 153.015C80.7224 153.763 81.6854 154.216 82.7113 154.281C90.8081 154.799 108.587 155.823 122.48 155.823C125.74 155.823 128.79 155.766 131.447 155.634L132.408 155.589C134.563 155.566 136.711 155.32 138.817 154.855C142.543 153.895 144.214 151.672 144.406 147.422C144.559 144.046 144.739 140.671 144.918 137.296C145.205 131.923 145.502 126.373 145.677 120.903C146.062 108.884 146.287 98.0171 146.362 87.6816C146.395 83.0676 146.438 78.4537 146.492 73.8384C146.694 54.4195 146.903 34.3388 145.973 14.5863C145.901 12.1274 145.669 9.67564 145.279 7.24664Z" fill="black"/>
</g>
<defs>
<clipPath id="clip0">
<rect width="146" height="156" fill="white" transform="translate(0.777344)"/>
</clipPath>
</defs>
</svg>

<svg xmlns="http://www.w3.org/2000/svg" width="147" height="156" fill="none" viewBox="0 0 147 156"><g fill="#000" clip-path="url(#a)"><path d="M24.313 80.746c2.872.194 5.794.314 8.619.431l2.71.114.87.038c3.425.15 6.969.307 10.457.42 3.199.105 6.689.186 10.67.251 2.595.042 5.195.065 7.794.088l3.539.032q1.745.017 3.489.041c2.571.033 5.233.061 7.847.066 3.36-.004 7.336-.024 11.348-.147 1.67-.052 3.36-.15 4.996-.245 1.851-.106 3.764-.216 5.642-.258 1.134-.025 2.289-.118 3.406-.207a33.6 33.6 0 0 1 7.196-.043 39 39 0 0 1-3.406 5.244 44 44 0 0 0-2.547 3.742l-.151.26c-1.938 3.307-3.942 6.727-5.744 10.188a75 75 0 0 1-1.47 2.642c-1.363 2.367-2.766 4.813-3.44 7.619a.66.66 0 0 0 .236.679l1.697 1.333a.67.67 0 0 0 .689.084c.203-.093.408-.169.61-.244.5-.156.97-.399 1.387-.718 8.509-7.274 16.116-16.181 24.667-28.882q.744-1.164 1.307-2.425c1.436-3.013 1.138-5.756-.885-8.152q-.339-.404-.67-.815c-.476-.588-.968-1.196-1.516-1.755a949 949 0 0 1-4.527-4.661c-3.982-4.121-8.1-8.383-12.354-12.37a89 89 0 0 0-8.701-6.878c-.974-.707-1.947-1.412-2.911-2.13l-.106-.079c-.544-.415-1.817-1.384-3.306.045a.67.67 0 0 0-.203.445c-.126 2.42 1.297 4.024 2.678 5.575q.814.871 1.498 1.849a69 69 0 0 0 5.499 6.943l.349.404c.969 1.121 2.007 2.2 3.011 3.252.959 1 1.952 2.036 2.87 3.092.633.727 1.335 1.411 2.012 2.072a20 20 0 0 1 3.579 4.22l-.21.025q-.84.132-1.692.133-5.457-.153-10.915-.337c-5.81-.186-11.818-.38-17.73-.507q-2.775-.06-5.55-.124c-16.546-.38-33.65-.774-50.462.719-6.035.534-12.128 1.442-18.02 2.32l-2.475.368a7.2 7.2 0 0 0-2.596 1.21c-.567.35-1.21.747-2.029 1.192a.67.67 0 0 0-.227.966.67.67 0 0 0 .288.232c3.617 1.516 6.736 1.565 9.487 1.608.962.015 1.87.03 2.772.1 1.557.123 3.11.273 4.665.422 1.95.184 3.967.378 5.96.513"/><path d="M145.279 7.247c-.692-3.87-3.085-6.042-6.916-6.283-1.493-.094-3.102-.216-4.73-.339-2.218-.168-4.512-.34-6.608-.449C112.517.255 87.706 1.7 85.761 1.978a2.69 2.69 0 0 0-1.947 1.13 3.52 3.52 0 0 0-.223 2.947.66.66 0 0 0 .364.427c3.763 1.728 24.085 2.21 38.924 2.56 5.796.137 10.475.249 12.737.401.078.809.159 1.57.237 2.3.195 1.812.36 3.381.399 4.958.15 6.303.305 13.757.304 21.238q0 7.47.02 14.94c.03 15.569.064 31.667-.226 47.49-.17 9.329-.772 18.815-1.355 27.987a1407 1407 0 0 0-.714 11.771 19 19 0 0 1-.292 2.164l-.136.804q-.514.077-1.017.159-1.493.267-3.005.374c-3.121.162-6.245.297-9.368.431-5.435.234-11.056.477-16.577.866-5.905.416-15.788 1.005-21.154 1.319a4.04 4.04 0 0 0-2.697 1.252 4.023 4.023 0 0 0-.014 5.519 4.04 4.04 0 0 0 2.69 1.266c8.097.518 25.876 1.542 39.769 1.542 3.26 0 6.31-.057 8.967-.189l.961-.045a31.3 31.3 0 0 0 6.409-.734c3.726-.96 5.397-3.183 5.589-7.433.153-3.376.333-6.751.512-10.126.287-5.373.584-10.923.759-16.393.385-12.019.61-22.886.685-33.221q.05-6.92.13-13.844c.202-19.418.411-39.5-.519-59.252a57 57 0 0 0-.694-7.34"/></g><defs><clipPath id="a"><path fill="#fff" d="M.777 0h146v156h-146z"/></clipPath></defs></svg>
